X: 1
T: The Ladies of Dunse
T: 8x40 R 3C (RSCDS Bk 26)
P: The Duchess of Buccleuch
C: William Marshall (Scottish Melodies Vol 2)
C: from Buddy MacMaster "Cape Breton Tradition"
C: arr. T. Traub 6-24-2012
C: also played as a strathspey
R: reel
M: C
L: 1/8
K: F
|: B|"F"(3ABc F>c |AF FB|"F"(3ABc Fc |"Bb"d/c/B/A/ "C"GB|"F"(3ABc Fc| "Dm"AF FC|"Bb"DF "C"E/F/G/E/ |"F"F2 F :|
fg|"F"aF Fa |"Bb"bd gf|"C"ec de |"F"f/e/f/g/ fg |"F"aF Fa |"Bb"bd gf|"C"ec "G"dB |"C"c2 c2||
"F"Cc BA |"Bb"dB B2|"C"B,B AB |"F"cA A2|"F"FG AF |"Gm"GA Bd|"C"cf e/f/g/e/ |"F"f2 f |]
